src/img/pic/ico/avatar-ico.svg

<svg width="60" height="60" viewBox="0 0 60 60" fill="none" xmlns="http://www.w3.org/2000/svg">
<path fill-rule="evenodd" clip-rule="evenodd" d="M30 60C46.5685 60 60 46.5685 60 30C60 13.4315 46.5685 0 30 0C13.4315 0 0 13.4315 0 30C0 46.5685 13.4315 60 30 60Z" fill="#499BFF"/>
<mask id="mask0" mask-type="alpha" maskUnits="userSpaceOnUse" x="0" y="0" width="60" height="60">
<path fill-rule="evenodd" clip-rule="evenodd" d="M30 60C46.5685 60 60 46.5685 60 30C60 13.4315 46.5685 0 30 0C13.4315 0 0 13.4315 0 30C0 46.5685 13.4315 60 30 60Z" fill="white"/>
</mask>
<g mask="url(#mask0)">
<path opacity="0.5" d="M29.9996 39.5482C35.8076 39.5482 40.5165 33.8291 40.5165 26.7742C40.5165 19.7191 38.9705 14 29.9996 14C21.0287 14 19.4824 19.7191 19.4824 26.7742C19.4824 33.8291 24.1912 39.5482 29.9996 39.5482Z" fill="black"/>
<path d="M10.1352 59.0527C10.1334 58.6226 10.1316 58.9315 10.1352 59.0527V59.0527Z" fill="black"/>
<path d="M49.8632 59.3887C49.8688 59.2709 49.8651 58.5716 49.8632 59.3887V59.3887Z" fill="black"/>
<path opacity="0.5" d="M49.8403 58.5368C49.6455 46.247 48.0404 42.745 35.7579 40.5283C35.7579 40.5283 34.0289 42.7315 29.9991 42.7315C25.9692 42.7315 24.24 40.5283 24.24 40.5283C12.0915 42.7209 10.3888 46.1709 10.1649 58.1376C10.1466 59.1147 10.138 59.1661 10.1348 59.0526C10.1355 59.2652 10.1364 59.6583 10.1364 60.3438C10.1364 60.3438 13.0606 66.2388 29.9991 66.2388C46.9373 66.2388 49.8618 60.3438 49.8618 60.3438C49.8618 59.9034 49.8621 59.5971 49.8625 59.3888C49.8592 59.4589 49.8527 59.3229 49.8403 58.5368Z" fill="black"/>
</g>
</svg>

<svg width="60" height="60" fill="none" xmlns="http://www.w3.org/2000/svg"><g clip-path="url(#clip0)"><path fill-rule="evenodd" clip-rule="evenodd" d="M30 60c16.569 0 30-13.431 30-30C60 13.431 46.569 0 30 0 13.431 0 0 13.431 0 30c0 16.569 13.431 30 30 30z" fill="#FF6B2C"/><path opacity=".5" d="M30 39.548c5.808 0 10.517-5.719 10.517-12.774C40.517 19.72 38.97 14 30 14c-8.971 0-10.518 5.72-10.518 12.774 0 7.055 4.71 12.774 10.518 12.774z" fill="#000"/><path d="M10.136 59.053c-.002-.43-.003-.121 0 0zm39.728.336c.006-.118.002-.817 0 0z" fill="#000"/><path opacity=".5" d="M49.842 58.538c-.194-12.29-1.8-15.792-14.082-18.009 0 0-1.73 2.203-5.759 2.203-4.03 0-5.76-2.203-5.76-2.203-12.148 2.193-13.85 5.643-14.074 17.61-.018.977-.027 1.028-.03.915l.001 1.29s2.925 5.896 19.863 5.896 19.863-5.895 19.863-5.895v-.955c-.003.07-.01-.066-.022-.852z" fill="#000"/></g><defs><clipPath id="clip0"><rect width="60" height="60" rx="30" fill="#fff"/></clipPath></defs></svg>
